public/sandwich-pin.svg

<svg width="320" height="577" viewBox="0 0 320 577" fill="none" xmlns="http://www.w3.org/2000/svg">
<g filter="url(#filter0_d_67_38)">
<path d="M160 554L37.0244 208.25H282.976L160 554Z" fill="#DA291C"/>
</g>
<g filter="url(#filter1_d_67_38)">
<path d="M311.111 182.365L8.88867 177.778L9.03978 201.111C9.19089 206.382 12.1953 211.671 18.6398 215.618L80.0353 253.2L141.44 290.773C155.004 299.085 178.284 298.311 190.551 290.773C202.844 283.262 196.702 279.511 208.978 271.982C221.253 264.48 227.386 268.231 239.68 260.729C251.973 253.191 301.093 223.156 301.093 223.156C307.858 219.013 311.235 213.582 311.253 208.142L311.111 182.365Z" fill="#F4900C"/>
</g>
<path d="M301.094 166.409C301.094 166.409 30.9246 151.386 18.6402 158.898C6.35574 166.409 5.07574 180.649 18.6402 188.96L80.0357 226.542L141.44 264.124C155.005 272.435 178.285 271.662 190.551 264.124C202.845 256.613 196.702 252.862 208.978 245.333C221.254 237.831 227.387 241.582 239.68 234.08C251.974 226.542 301.085 196.498 301.085 196.498C314.649 188.186 314.658 174.711 301.094 166.409Z" fill="#FFAC33"/>
<path d="M90.8623 219.04L153.716 256.622C153.716 256.622 166.285 264.124 178.853 256.622C189.493 250.249 197.707 237.831 197.707 237.831L90.8623 219.04Z" fill="#FFD983"/>
<path d="M299.902 165.022C282.649 142.009 62.6221 125.804 28.1066 158.204C21.1377 164.755 7.97323 177.938 21.991 197.662C28.1066 207.991 40.7999 214.72 42.4888 211.529C46.4266 204.044 54.2843 197.502 66.071 198.133C65.4043 199.715 71.7688 226.64 71.0488 227.244C62.8266 234.231 79.911 258.515 99.9288 245.582C104.915 255.431 135.093 279.742 155.92 246.489C160.062 253.991 203.564 265.404 215.644 230.791C215.547 231.386 215.573 231.893 215.413 232.533C214.622 235.644 221.831 238.338 229.173 235.76C241.52 231.44 259.351 220.711 262.507 208.933C271.315 207.395 277.92 209.84 283.004 216.56C285.52 219.884 294.151 220.684 297.84 216.338C304.347 208.702 315.022 185.2 299.902 165.022Z" fill="#77B255"/>
<path d="M275.555 222.587C275.555 227.289 267.591 231.111 257.778 231.111H62.2221C52.4088 231.111 44.4443 227.289 44.4443 222.587V164.355H275.555V222.587Z" fill="#FFCC4D"/>
<path d="M296.098 177.662C296.098 202.266 255.333 222.222 205.058 222.222C154.764 222.222 114.009 202.266 114.009 177.662C114.009 153.049 154.764 133.102 205.058 133.102C255.333 133.102 296.098 153.058 296.098 177.662Z" fill="#BE1931"/>
<path d="M311.111 129.031L8.88867 124.444V147.778H9.03978C9.19089 153.049 12.1953 158.338 18.6398 162.284L80.0353 199.867L141.44 237.44C155.004 245.751 178.284 244.978 190.551 237.44C202.844 229.929 196.702 226.178 208.978 218.649C221.253 211.147 227.386 214.898 239.68 207.395C251.973 199.858 301.093 169.822 301.093 169.822C307.858 165.68 311.235 160.249 311.253 154.809V154.764L311.111 129.031Z" fill="#F4900C"/>
<path d="M301.094 113.075L178.294 37.9288C164.729 29.6266 142.738 29.6266 129.165 37.9288L67.7602 75.511C55.4846 83.0221 61.618 86.7821 49.3424 94.2933C37.0669 101.804 30.9246 98.0444 18.6402 105.564C6.35574 113.075 5.07574 127.315 18.6402 135.627L141.44 210.782C155.005 219.093 178.285 218.32 190.551 210.782C202.845 203.271 196.702 199.52 208.978 191.991C221.254 184.489 227.387 188.24 239.68 180.738C251.974 173.2 301.085 143.155 301.085 143.155C314.649 134.853 314.658 121.378 301.094 113.075Z" fill="#FFAC33"/>
<path d="M292 120.604L166.285 45.4487C166.285 45.4487 152.889 38.4176 141.138 45.4487L79.2536 82.4442C68.6136 88.7998 70.0713 95.4487 59.4313 101.804C48.8002 108.169 38.6402 106.72 28.0002 113.075C15.4313 120.604 28.0002 128.124 28.0002 128.124L153.707 203.28C153.707 203.28 166.276 210.782 178.845 203.28C189.485 196.906 187.076 190.862 197.698 184.489C208.338 178.115 219.449 178.986 230.089 172.631C240.729 166.284 291.982 135.626 291.982 135.626C291.982 135.626 303.742 127.618 292 120.604Z" fill="#FFD983"/>
<defs>
<filter id="filter0_d_67_38" x="27.1244" y="201.35" width="275.751" height="375.55" filterUnits="userSpaceOnUse" color-interpolation-filters="sRGB">
<feFlood flood-opacity="0" result="BackgroundImageFix"/>
<feColorMatrix in="SourceAlpha" type="matrix" values="0 0 0 0 0 0 0 0 0 0 0 0 0 0 0 0 0 0 127 0" result="hardAlpha"/>
<feOffset dx="5" dy="8"/>
<feGaussianBlur stdDeviation="7.45"/>
<feComposite in2="hardAlpha" operator="out"/>
<feColorMatrix type="matrix" values="0 0 0 0 0 0 0 0 0 0 0 0 0 0 0 0 0 0 0.4 0"/>
<feBlend mode="normal" in2="BackgroundImageFix" result="effect1_dropShadow_67_38"/>
<feBlend mode="normal" in="SourceGraphic" in2="effect1_dropShadow_67_38" result="shape"/>
</filter>
<filter id="filter1_d_67_38" x="4.88867" y="177.778" width="310.364" height="126.942" filterUnits="userSpaceOnUse" color-interpolation-filters="sRGB">
<feFlood flood-opacity="0" result="BackgroundImageFix"/>
<feColorMatrix in="SourceAlpha" type="matrix" values="0 0 0 0 0 0 0 0 0 0 0 0 0 0 0 0 0 0 127 0" result="hardAlpha"/>
<feOffset dy="4"/>
<feGaussianBlur stdDeviation="2"/>
<feComposite in2="hardAlpha" operator="out"/>
<feColorMatrix type="matrix" values="0 0 0 0 0 0 0 0 0 0 0 0 0 0 0 0 0 0 0.25 0"/>
<feBlend mode="normal" in2="BackgroundImageFix" result="effect1_dropShadow_67_38"/>
<feBlend mode="normal" in="SourceGraphic" in2="effect1_dropShadow_67_38" result="shape"/>
</filter>
</defs>
</svg>

<svg width="320" height="569" viewBox="0 0 320 569" fill="none" xmlns="http://www.w3.org/2000/svg">
  <path d="M160 285v271" stroke="#D9534F" stroke-width="26" stroke-miterlimit="10" stroke-linecap="round"/>
  <path d="M311.111 182.365 8.889 177.778l.15 23.333c.152 5.271 3.156 10.56 9.6 14.507L80.036 253.2l61.405 37.573c13.564 8.312 36.844 7.538 49.111 0 12.293-7.511 6.151-11.262 18.427-18.791 12.275-7.502 18.408-3.751 30.702-11.253 12.293-7.538 61.413-37.573 61.413-37.573 6.765-4.143 10.142-9.574 10.16-15.014z" fill="#F4900C"/>
  <path d="M301.094 166.409s-270.17-15.023-282.454-7.511-13.564 21.751 0 30.062l61.396 37.582 61.404 37.582c13.565 8.311 36.845 7.538 49.111 0 12.294-7.511 6.151-11.262 18.427-18.791 12.276-7.502 18.409-3.751 30.702-11.253 12.294-7.538 61.405-37.582 61.405-37.582 13.564-8.312 13.573-21.787.009-30.089" fill="#FFAC33"/>
  <path d="m90.862 219.04 62.854 37.582s12.569 7.502 25.137 0c10.64-6.373 18.854-18.791 18.854-18.791z" fill="#FFD983"/>
  <path d="M299.902 165.022c-17.253-23.013-237.28-39.218-271.795-6.818-6.97 6.551-20.134 19.734-6.116 39.458 6.116 10.329 18.809 17.058 20.498 13.867 3.938-7.485 11.795-14.027 23.582-13.396-.667 1.582 5.698 28.507 4.978 29.111-8.222 6.987 8.862 31.271 28.88 18.338 4.986 9.849 35.164 34.16 55.991.907 4.142 7.502 47.644 18.915 59.724-15.698-.097.595-.071 1.102-.231 1.742-.791 3.111 6.418 5.805 13.76 3.227 12.347-4.32 30.178-15.049 33.334-26.827 8.808-1.538 15.413.907 20.497 7.627 2.516 3.324 11.147 4.124 14.836-.222 6.507-7.636 17.182-31.138 2.062-51.316" fill="#77B255"/>
  <path d="M275.555 222.587c0 4.702-7.964 8.524-17.777 8.524H62.222c-9.813 0-17.778-3.822-17.778-8.524v-58.232h231.111z" fill="#FFCC4D"/>
  <path d="M296.098 177.662c0 24.604-40.765 44.56-91.04 44.56-50.294 0-91.049-19.956-91.049-44.56 0-24.613 40.755-44.56 91.049-44.56 50.275 0 91.04 19.956 91.04 44.56" fill="#BE1931"/>
  <path d="M311.111 129.031 8.889 124.444v23.334h.15c.152 5.271 3.156 10.56 9.6 14.506l61.396 37.583 61.405 37.573c13.564 8.311 36.844 7.538 49.111 0 12.293-7.511 6.151-11.262 18.427-18.791 12.275-7.502 18.408-3.751 30.702-11.254 12.293-7.537 61.413-37.573 61.413-37.573 6.765-4.142 10.142-9.573 10.16-15.013v-.045z" fill="#F4900C"/>
  <path d="m301.094 113.075-122.8-75.146c-13.565-8.302-35.556-8.302-49.129 0L67.76 75.51c-12.275 7.511-6.142 11.271-18.418 18.782s-18.417 3.751-30.702 11.271c-12.284 7.511-13.564 21.751 0 30.063l122.8 75.155c13.565 8.311 36.845 7.538 49.111 0 12.294-7.511 6.151-11.262 18.427-18.791 12.276-7.502 18.409-3.751 30.702-11.253 12.294-7.538 61.405-37.583 61.405-37.583 13.564-8.302 13.573-21.777.009-30.08" fill="#FFAC33"/>
  <path d="M292 120.604 166.285 45.449s-13.396-7.031-25.147 0L79.254 82.444C68.614 88.8 70.07 95.45 59.43 101.804 48.8 108.169 38.64 106.72 28 113.075c-12.57 7.529 0 15.049 0 15.049l125.706 75.156s12.569 7.502 25.138 0c10.64-6.374 8.231-12.418 18.853-18.791 10.64-6.374 21.751-5.503 32.391-11.858 10.64-6.347 61.893-37.005 61.893-37.005s11.76-8.008.018-15.022" fill="#FFD983"/>
</svg>
